src/svg/resizenorthsouth.svg

<svg height="35" viewBox="0 0 35 35" width="35" xmlns="http://www.w3.org/2000/svg"><g fill="none" fill-rule="evenodd"><path d="m17 9-6 5.98h4v2.02 2h-4l6 6 6-6h-4v-2-2.02h4zm0 1.414 3.586 3.567h-2.586v2.52 3.499h2.586l-3.586 3.586-3.586-3.586h2.586v-3.499-2.52h-2.586z" fill="#fff"/><path d="m18 16.5v-2.52h2.586l-3.586-3.566-3.586 3.566h2.586v2.52 3.5h-2.586l3.586 3.586 3.586-3.586h-2.586z" fill="#000"/></g></svg>

<?xml version="1.0" encoding="UTF-8" standalone="no"?>
<svg width="35px" height="35px" viewBox="0 0 35 35" version="1.1" xmlns="http://www.w3.org/2000/svg" xmlns:xlink="http://www.w3.org/1999/xlink">
    <defs></defs>
    <g id="Page-1" stroke="none" stroke-width="1" fill="none" fill-rule="evenodd">
        <g id="resizenorthsouth">
            <g id="bg-copy" fill="#FFFFFF" opacity="0.00999999978">
                <rect id="bg" x="0" y="0" width="35" height="35"></rect>
            </g>
            <path d="M17,9 L11,14.98 L15,14.98 L15,17 L15,19 L11,19 L17,25 L23,19 L19,19 L19,17 L19,14.98 L23,14.98 L17,9 Z M17,10.414 L20.586,13.981 L18,13.981 L18,16.501 L18,20 L20.586,20 L17,23.586 L13.414,20 L16,20 L16,16.501 L16,13.981 L13.414,13.981 L17,10.414 Z" id="resize-border" fill="#FFFFFF"></path>
            <path d="M18,16.5 L18,13.98 L20.586,13.98 L17,10.414 L13.414,13.98 L16,13.98 L16,16.5 L16,20 L13.414,20 L17,23.586 L20.586,20 L18,20 L18,16.5 Z" id="resize" fill="#000000"></path>
        </g>
    </g>
</svg>
